!!!OTL: Reue der jungen Ehefrau (190), S. 413f
!!!id: T0369
**kern
*clefG2
*k[]
*C:
{8g
=1
4g
8e
4g
8ee
=2
4.cc
4cc}
=3
{8e
=4
4g
8g
4g
8a
=5
4.f}
4r
=6
{8f
=7
4f
8f
4f
8dd
=8
4.dd
4dd}
=9
{8cc
=10
8b
8b
8a
4g
8f
=11
4.e}
4.r
=12
{4cc
8cc
8dd
8cc
8cc
=13
8a
8b
8cc
4g}
=14
{8g
=15
4cc
8g
8cc
8g
8cc
=16
4ee}
2r
=17
{4cc
8cc
8dd
8cc
8cc
=18
8a
8b
8cc
4g}
=19
{8g
=20
4cc
8g
8ee
8ee
8dd
=21
4.cc}
4r
=22
{8g
=23
8g
8g
16a
16a
8g
8e
8g
=24
8g
8g
16a
16a
8g
8e}
=25
{8cc
=26
8cc
8b
16b
16b
8b
8a
8b
=27
8cc
8cc
8cc
4cc}
==
*-
!!!minrhy: 16
!!!meters: 6/8 ]  ZZ[10
!!!cut: Reue der jungen Ehefrau (190), S. 413f
!!!reg: Luxemburg
!!!trd: Singendes Volk, Esch-Alzette, 1937 posth.
!!!rhy1: X_  X__X_X__X_  X__.X__   (x2)
!!!rhy2: X_  X__X_X__X_  X__.0_
!!!key: T0369  16  C 6/8 ]  ZZ[10
!!!mod: HEPTATONIK IONISCH]  AMBITUS[8
!!!kad: +14+235+35+13+1
!!!akz: 55+1+1_554_44+2+2_753_+1+265_+1+1+3_+1+265_+1+3+1_5555_+17+1+1_
!!!fot: 'a__aw_b__c__d__e__d__f__g__h__
!!!for: 'a__a__a__b__c__cw_c__cw_d__e__
!!!fok: '/__^a_/__\__Sd_/__Sd_^a_-__V__
!! PHRAS[VORWIEGEND AUFTAKTIG]
!!!fkt: Hochzeits-, Ehestandslied
!!!bem: Tadler, hhh Nikolaus Schroeder, 26.2.1933
!! THILL; Mathias
!! PR[55] 2K[2] 2G[5] 3K[7] 3G[2] 4A[1] 4Ü[0] 5A[0] 6K[1] 6G[1]
!! 7K[0] 7G[0] 8A[0] MEHR[0] SI[18] ABS[143] SR[7] SP[11]
!! ST[42] 2k[6] 2g[15] 3k[6] 3g[0] 4d[1] 4ü[0] 5d[0] 6k[0] 6g[0]
!! 7k[0] 7g[0] 8d[0] mehr[0] si[27] dm[-9] sr[20] sp[7]
!! 1F[10] 2F[78] 3F[11] 4F[0] LF[0] 2P[1] 3P[0] 4P[0] TRI[0] DF[4] AB[157]
!! TF[0] U3K[0] U3[0] U4[0] U4Ü[0] U5[0] U6K[0] U6[0] U7K[0] U7[0]
!! N1[0] N2K[0] N2[5] N3K[0] N3[24] N4[17] N4Ü[0] N5[35] N6K[0] N6[10]
!!!n7k: 0] N7[5] O1[2] O2K[0] O2[1] O3K[0] O3[1] HÖ[0
